X: 11824
T: DUMBLE DUM DEARY
O: Old English air.
%R: air, jig
B: W. Hamilton "Universal Tune-Book" Vol. 1 Glasgow 1844 p.182 #4
S: http://imslp.org/wiki/Hamilton's_Universal_Tune-Book_(Various)
Z: 2016 John Chambers <jc:trillian.mit.edu>
M: 6/8
L: 1/8
K: G
% - - - - - - - - - - - - - - - - - - - - - - - - -
G |\
GAG B2B | AGA G2G | BcB d2d | cBc B2d |\
dcB dcB | dcB d2d | edc cBc | d2cB2A |\
GFG B2A | GFG B2A | GFG d2c | BcA G2 |]
% - - - - - - - - - - - - - - - - - - - - - - - - -

%%sep 1 1 500
%%sep 1 1 500

